X: 5587
T: Bushmills Fancy
R: hornpipe
M: 4/4
K: Gmajor
BA|:"G"GF DB, "C"C2 B,C|"G"DE F/E/D G2 Bc|dg g/g/g "C"fd cA|dB cA "D"Bc AF|
"G"GF DB, "C"C2 B,C|"G"DE F/E/D G2 Bc|dg g/g/g "C"fd cA|1 "D"dc AF "G"G2 BA:|2 "D"dc AF "G"G2 Bc||
|:"G"d2 ge dB G2|"C"c2 c/c/B AG FE|"D"D2 D/F/G AB cA|de fg af df|
"G"g2 fg "D"af df|"C"gf ga "D"fd dc|"C"AB c/B/A "D"dc AF|1 "C"G2 GF "G"G2 Bc:|2 "C"G2 GF "G"G4||

